X: 140047
Q: "Irish Jig."
M: 6/8
L: 1/8
K: D
|:\
vd2ve fdB | vd2ve fdB | AFE EFE | AFE EFA |\
d2e fdB | d2e fdB | AFD DFD | AFD DFD :|\
gbg faf | gfe dcB | AFE EFE | AFE EFA |\
gbg faf | gfe dcB | AFD DFD | AFD DFD :|


